X:9499
T:les Balanoires
R:Valse
O:France
M:3/8
L:1/8
Q:1/4=100
K:C
g2 g|gag|f d/2f/2d/2f/2|B3|f2f|1 fgf|e c/2e/2c/2e/2|G3:|2 fed|c3|
c G/2c/2 G/2c/2|B f/2B/2f/2B/2|A2 f|B f/2B/2f/2B/2|A2 B|c
e/2c/2e/2c/2|
G2e|c e/2c/2e/2c/2|G2c|B f/2B/2f/2B/2|
A2 f|B f/2B/2f/2B/2|A2 B|ceg|c3:||
